X:911
M:C
L:1/8
K:B_
d<f f>g f>dc>B|d<f f>g f>d ~c2|d<f f>g f>dc>d|~B>F G<B F>D B,2|
d<f f>g f>dc>B|d<f f>g f>dc>e|d<fc<d ~B>cd>c|B<F G<B F>D B,2||

